resources/svg/lock-simple-bold.svg

<svg xmlns="http://www.w3.org/2000/svg" viewBox="0 0 256 256" fill="currentColor"><path d="M207.99414,76h-32V52a48,48,0,1,0-96,0V76h-32a20.02229,20.02229,0,0,0-20,20V208a20.02229,20.02229,0,0,0,20,20h160a20.02229,20.02229,0,0,0,20-20V96A20.02229,20.02229,0,0,0,207.99414,76Zm-104-24a24,24,0,1,1,48,0V76h-48Zm100,152h-152V100h152Z"/></svg>

<svg xmlns="http://www.w3.org/2000/svg" viewBox="0 0 256 256" fill="currentColor"><path d="M208,76H176V52a48,48,0,0,0-96,0V76H48A20.1,20.1,0,0,0,28,96V208a20.1,20.1,0,0,0,20,20H208a20.1,20.1,0,0,0,20-20V96A20.1,20.1,0,0,0,208,76ZM104,52a24,24,0,0,1,48,0V76H104ZM204,204H52V100H204Z"/></svg>
